packages/katcn/src/icons/svg/receipt.svg

<svg xmlns="http://www.w3.org/2000/svg" fill="none" viewBox="0 0 24 24"><path fill="#000" d="M12 22c-.2 0-.4-.1-.6-.2l-2.9-2.1-2.9 2.1c-.3.2-.7.2-1 .1Q4 21.6 4 21V5.5C4 3.5 5.5 2 7.3 2h9.3C18.5 2 20 3.5 20 5.5V21c0 .4-.2.7-.5.9s-.7.1-1-.1l-2.9-2.1-2.9 2.1c-.3.1-.5.2-.7.2m-3.5-4.5c.2 0 .4.1.6.2l2.9 2.1 2.9-2.1c.3-.2.8-.2 1.1 0l1.9 1.3V5.5c.1-.8-.5-1.5-1.2-1.5H7.3C6.6 4 6 4.7 6 5.5v13.6l1.9-1.3q.3-.3.6-.3"/><path fill="#000" d="M11.5 14.2c-.2 0-.5-.1-.6-.2l-2-1.6c-.4-.4-.5-1.1-.1-1.5s1-.5 1.4-.1l1.2 1 2.3-2.6c.4-.4 1-.4 1.4-.1.4.4.4 1 .1 1.4l-2.9 3.4c-.2.2-.5.3-.8.3"/></svg>

<svg width="24" height="24" viewBox="0 0 24 24" fill="none" xmlns="http://www.w3.org/2000/svg">
<path d="M12 22C11.8 22 11.6 21.9 11.4 21.8L8.5 19.7L5.6 21.8C5.3 22 4.9 22 4.6 21.9C4.2 21.7 4 21.4 4 21V5.5C4 3.5 5.5 2 7.3 2H16.6C18.5 2 20 3.5 20 5.5V21C20 21.4 19.8 21.7 19.5 21.9C19.2 22.1 18.8 22 18.5 21.8L15.6 19.7L12.7 21.8C12.4 21.9 12.2 22 12 22ZM8.5 17.5C8.7 17.5 8.9 17.6 9.1 17.7L12 19.8L14.9 17.7C15.2 17.5 15.7 17.5 16 17.7L17.9 19V5.5C18 4.7 17.4 4 16.7 4H7.3C6.6 4 6 4.7 6 5.5V19.1L7.9 17.8C8.1 17.6 8.3 17.5 8.5 17.5Z" fill="black"/>
<path d="M11.5 14.2C11.3 14.2 11 14.1 10.9 14L8.90005 12.4C8.50005 12 8.40005 11.3 8.80005 10.9C9.20005 10.5 9.80005 10.4 10.2 10.8L11.4 11.8L13.7 9.2C14.1 8.8 14.7 8.8 15.1 9.1C15.5001 9.5 15.5 10.1 15.2 10.5L12.3001 13.9C12.1 14.1 11.8 14.2 11.5 14.2Z" fill="black"/>
</svg>
